X:1
T:Love Is the Theme
T:Love Is the Theme
T:Albert Christopher Fisher
T:Albert Christopher Fisher, 1913
T:Public Domain Courtesy of the Cyber Hymnal™
T:Public Domain Courtesy of the Cyber Hymnal™
C:Albert Christopher Fisher
Z:Public Domain
Z:Courtesy of the Cyber Hymnal™
%%score ( 1 2 ) ( 3 4 )
L:1/8
Q:1/4=110
M:4/4
K:Bb
V:1 treble 
V:2 treble 
V:3 bass 
V:4 bass 
V:1
 [DF][DF] | [DB]2 [DA]2 [DG]2 (Fc) | (B4 A2) [EF][EF] | [Ec]2 [EA]2 [EG]2 (FA) | G4 [DF]2 | %5
w: 1.~Of the|themes that men have *|known, * One su-|preme- ly stands a- *|lone; Through|
w: 2.~Let the|bells of Hea- ven *|ring, * Let the|saints their trib- ute *|bring, Let|
w: 3.~Since the|Lord my soul un- *|bound, * I am|tell- ing all a- *|round Par-|
w: 4.~As of|old when blind and *|lame * To the|bless- èd Mas- ter *|came, Sin-|
 [DF][DF] | [Fd]2 [Ec]2 [DB]2 (AB) | (A4 c2) [Ec][Ec] | [=Ec] [EG]2 [EA] [Ed] [Ec]2 G | %9
w: * the|ag- es it has *|shown, * ’Tis His|won- der- ful, won- der- ful|
w: * the|world true prais- es *|sing * For His|won- der- ful, won- der- ful|
w: * don,|peace and joy are *|found * In His|won- der- ful, won- der- ful|
w: * ners,|call up- on His *|Name, * Trust His|won- der- ful, won- der- ful|
 [Fc-]4 [Ec]4 ||[M:3/4]"^Refrain" [DBd]2 [Dcd]2 [DBd]2 | [EAe]6 x4 | [Ece]2 [Fdf]2 [Ece]2 | %13
w: love. *||||
w: love. Love|is the theme,|love|is su- preme;|
w: love. *||||
w: love. *||||
 [DBd]6 x4 | [Dcd]2 [DBd]2 [DGd]2 | [EAe]6 x4 | [Ece]2 [D=Bd]2 [Ece]2 | [Fdf]6 | %18
w: |||||
w: Sweet-|er it grows,|glo-|ry be- stows;|Bright|
w: |||||
w: |||||
 [Fdf]2 [Geg]2 [Fdf]2 | [=EG=e]6 | [Ece]2 [Fdf]2 [Ece]2 | [DFd]6 | [EG]2 [FA]2 [GB]2 | %23
w: |||||
w: as the sun|ev-|er it glows!|Love|is the theme,|
w: |||||
w: |||||
 !fermata![FBf]4 [Geg]2 | [Fdf]4 [Ece]2 | [DBd]6 |] %26
w: |||
w: e- ter-|nal theme!||
w: |||
w: |||
V:2
 x2 | x6 D2 | E6 x2 | x6 E2 | D2 ^C2 x2 | x2 | x6 D2 | E6 x2 | x8 | x8 ||[M:3/4] x6 | x10 | x6 | %13
 x10 | x6 | x10 | x6 | x6 | x6 | x6 | x6 | x6 | x6 | x6 | x6 | x6 |] %26
V:3
 [B,,B,][B,,B,] | [B,,F,]2 [B,,F,]2 [B,,B,]2 (B,F,) | ([C,F,]4 [F,C]2) [F,A,][F,A,] | %3
 [F,A,]2 [F,C]2 [F,B,]2 (A,C) | (B,F, =E,G, [B,,B,]2) | [B,,B,][B,,B,] | %6
 [B,,B,]2 [B,,B,]2 [B,,F,]2 (B,F,) | [C,F,]4 [F,A,]2 [F,A,][F,A,] | %8
 [C,B,] [C,B,]2 [C,B,] [C,B,] [C,B,]2 [=E,B,] | [F,A,]8 ||[M:3/4] [B,,F,]2 [B,,F,]2 [B,,F,]2 | %11
 z2 x8 | [F,A,]2 [F,B,]2 F,2 | z2 x8 | [B,,F,]2 [B,,F,]2 [B,,F,]2 | z2 x8 | %16
 [F,A,]2 [F,A,]2 [F,A,]2 | (z2 [F,,F,]2 [B,,B,]2) | [B,,B,]2 [B,,B,]2 [B,,B,]2 | %19
 (z2 [G,,G,]2 [C,B,]2) | [F,,F,A,]2 [F,,F,A,]2 [F,,F,A,]2 | (z2 [F,,F,]2 [B,,B,]2) | %22
 [E,B,]2 [E,B,]2 [E,B,]2 | !fermata![D,B,]4 [E,B,]2 | (B,2 A,2) F,2 | [B,,F,]6 |] %26
V:4
 x2 | x6 B,,2 | x8 | x6 F,2 | B,,4 x2 | x2 | x6 B,,2 | x8 | x8 | x8 ||[M:3/4] x6 | %11
 [C,F,]6 F,,2 C,2 | x6 | [B,,F,]6 F,,2 B,,2 | x6 | [C,F,]6 F,,2 C,2 | x6 | [B,,B,]6 | x6 | %19
 [C,B,]6 | x6 | [B,,B,]6 | x6 | x6 | F,4 x2 | x6 |] %26

